assets/icons/solid/road-spikes.svg

<svg xmlns="http://www.w3.org/2000/svg" viewBox="0 0 640 512"><!--! Font Awesome Free 6.7.2 by @fontawesome - https://fontawesome.com License - https://fontawesome.com/license/free (Icons: CC BY 4.0, Fonts: SIL OFL 1.1, Code: MIT License) Copyright 2024 Fonticons, Inc. --><path d="M64 116.8c0-15.8 20.5-22 29.3-8.9L192 256l0-139.2c0-15.8 20.5-22 29.3-8.9L320 256l0-139.2c0-15.8 20.5-22 29.3-8.9L448 256l0-139.2c0-15.8 20.5-22 29.3-8.9L606.8 302.2c14.2 21.3-1.1 49.7-26.6 49.7L512 352l-64 0-64 0-64 0-64 0-64 0L64 352l0-235.2zM32 384l576 0c17.7 0 32 14.3 32 32s-14.3 32-32 32L32 448c-17.7 0-32-14.3-32-32s14.3-32 32-32z"/></svg>

<svg xmlns="http://www.w3.org/2000/svg" viewBox="0 0 640 512"><!--! Font Awesome Pro 6.5.1 by @fontawesome - https://fontawesome.com License - https://fontawesome.com/license (Commercial License) Copyright 2023 Fonticons, Inc. --><path d="M64 116.8c0-15.8 20.5-22 29.3-8.9L192 256V116.8c0-15.8 20.5-22 29.3-8.9L320 256V116.8c0-15.8 20.5-22 29.3-8.9L448 256V116.8c0-15.8 20.5-22 29.3-8.9L606.8 302.2c14.2 21.3-1.1 49.7-26.6 49.7H512 448 384 320 256 192 64V116.8zM32 384H608c17.7 0 32 14.3 32 32s-14.3 32-32 32H32c-17.7 0-32-14.3-32-32s14.3-32 32-32z"/></svg>
